X:1
T:Kyrie Eleison
T:C. V. Stanford (Adapted from the Gloria in Bb)
T:Kyrie Eleison
C:C. V. Stanford
C:(Adapted from the Gloria in Bb)
%%score [ ( 1 2 ) ( 3 4 ) ] { ( 5 6 ) | ( 7 8 9 ) }
L:1/8
M:3/4
K:Bb
V:1 treble nm="P1"
V:2 treble 
V:3 bass nm="P2"
V:4 bass 
V:5 treble nm="P3"
V:6 treble 
V:7 bass 
V:8 bass 
V:9 bass 
V:1
!mp!"^Slow" d4 c2 | B4 (AG) | (^F2 G2) A2 | D6 | z2 d2 c2 | B4 A2 | G4 A2 | D6 | (D2 ^F2) A2 | %9
w: |||||||||
w: Ky- ri-|e e- *|le- * i-|son,|Ky- ri-|e e-|le- i-|son,|Ky- * ri-|
 B4 A2 | (G2 A2) ^F2 | G6 | z6 |!mf!"^S & A" E2 D2 G2 | ^F3 G A2 | z6 |"^cresc."!f! z6 | (B4 c2) | %18
w: |||||||||
w: e e-|le- * i-|son.||Chri- ste e-|le- i- son,|||Chri- *|
 c4 d2 | e4 e2 | (e2 d2) z2 |!p! z2 c3 d |!p! (c2 B2) z2 | z6 | z6 | z2 c2 d2 | (e2 c2) A2 | %27
w: |||Ky- ri-|e *|||||
w: ste e-|le- i-|son. *||* Ky-|||Ky- ri-|e * e-|
 G4 ^F2 | G6 |] %29
w: ||
w: le- i-|son.|
V:2
 (^F2 G2) F2 | G4 E2 | D4 ^C2 | D6 | x2 =E2 ^F2 | G4 _E2 | (E2 D2) ^C2 | D6 | (D2 ^F2) A2 | %9
 B4 ^F2 | (G2 E2) D2 | D6 | x6 | x6 | x6 | x6 | x6 | (D2 ^C2 AG) | (G2 F2) F2 | E4 E2 | _A4 x2 | %21
 z6 | z2 G3 A | (G2 ^F2) z2 | x6 | x2 G2 G2 | G4 E2 | (E2 D2) C2 | B,6 |] %29
V:3
 (A,2 B,2) A,2 | B,2 D2 (CB,) | (A,2 B,2) =E,2 | (^F,2 G,2 A,2) | z2 G,2 A,2 | D4 C2 | %6
w: ||||||
w: ||||||
 (C2 B,2) A,2 | (G,2 ^F,4) | (D,2 F,2) A,2 | B,4 C2 | (B,2 C2) A,2 | B,6 | z6 | z6 | %14
w: ||||||||
w: ||||||||
"^T & B"!mf! z6 | A,2 G,2 C2 | B,3 C D2 | (B,4 =E2) | (=E2 F2) B,2 | B,4 B,2 | =B,4 z2 | z6 | z6 | %23
w: |||||||||
w: |Chri- ste e-|le- i- son,|||||||
!p! z2 A,3 B, | (A,2 G,2) z2 | z2 C2 =B,2 | (C2 E2) C2 | (C2 B,2) A,2 | G,6 |] %29
w: Ky- ri-|e *|||||
w: |* Ky-|||||
V:4
 D,4 D,2 | G,4 G,2 | D,4 D,2 | (D,2 =E,2 ^F,2) | x2 B,,2 A,,2 | G,,4 G,2 | (G,3 F,) E,2 | D,6 | %8
 (D,2 ^F,2) A,2 | B,4 D,2 | (E,2 C,2) D,2 | G,6 | x6 | x6 | x6 | x6 | x6 | (F,2 =E,2 CB,) | %18
 (B,2 A,2) _A,2 | G,4 G,2 | F,4 x2 | x6 | x6 | z6 | z2 D,3 E, | D,2 C,2 F,2 | (E,2 G,2) C,2 | %27
 E,4 D,2 | [G,,D,]6 |] %29
V:5
!mp! d4 c2 | B4 A2 | ^F2 G2 A2 | D6- | D2 =E2 ^F2 | G6- | G6- | G2 ^F4 | D2 ^F2 [EA]2 | %9
 [DB]4 [^FA]2 | G2 A2 [D^F]2 | G6 | A2"^cresc." c2 B2 | B3 A G2 | ^F3 G F2 | ^F2 G2"^cresc." A2 | %16
 B3 A G2 | G4 c2 | c4 d2 | [Ee]6 | e2 d4 |!p! c4- cd | c2 B2 z2 | G2 ^F4 | A2!p! G4- | G6- | %26
 G4 A2 | G4 ^F2 | [B,DG]6 |] %29
V:6
 ^F2 G2 F2 | G2 D2 E2 | D4 ^C2 | x6 | D6 | D4 E2- | E2 D2 ^C2 | D6 | x6 | x6 | E4 x2 | D2 C2 D2 | %12
 E4 G2 | [CE]6 | [A,D]2 [A,^C]2 [A,D]2 | D6 | D2 E2 D2 | D2 ^C2 AG | G2 F4 | x6 | _A4 G2 | G6 | %22
 G4- GA | D6- | D6- | D2 C2 D2 | C2 E2 E2 | E2 D2 C2 | x6 |] %29
V:7
 A,2 B,2 A,2 | G,2 B,2 C2 | C2 B,2 =E,2 | ^F,2 [=E,G,]2 [F,A,]2 | G,4 A,2 | B,4 C2- | C2 B,2 A,2- | %7
 A,6 | D,2 ^F,2 A,2 | G,4 C2 | B,2 C2 A,2 | B,2 A,2 B,2 | C4 D2 |!mf! C,6 | D,2 E,2 D,2 | %15
 A,2 G,2 ^F,2 | G,2 C2!f! B,2 | B,4 =E2 | [B,=E]2 [A,C]2 [_A,B,]2 | [G,B,]6 |"^dim." [F,=B,]6 | %21
 [E,C]6 | D6 | A,4- A,B, | A,2 G,4- | G,4 [F,=B,]2 | [E,G,]2 G,2 C2 | C2 B,2 A,2 | [D,G,]6 |] %29
V:8
 D,6- | D,6- | D,6- | D,2 D,2 C,2 | B,,4 A,,2 | G,,6- | G,,3 F,, E,,2 | D,,6 | x4 C,2 | %9
 B,,2 G,,2 D,2 | E,2 C,2 D,2 | G,4 G,,2- | G,,2 ^F,,2 G,,2 | x6 | x6 | C,2 B,,2 A,,2 | %16
 G,,2 ^F,,2 G,,2 | F,2 =E,2 CB, | F,,4 _A,,2 | G,,6 | F,,6 | E,,6 | D,,6 | C,6 | B,,6 | E,,4 D,,2 | %26
 C,,6 | D,,6 | G,,6 |] %29
V:9
 x6 | x6 | x6 | x6 | x6 | x6 | x6 | x6 | x6 | x6 | x6 | x6 | x6 | x6 | x6 | x6 | x6 | C,,6 | x6 | %19
 x6 | x6 | x6 | D,4 B,C | x6 | x6 | x6 | x6 | x6 | x6 |] %29

